X: 0240
T: the Seagull - 8x32J
P: Iain Boyd
C: Nan Main
B: Miss Milligan's Miscellany v.2 #40
Z: 2019 John Chambers <jc:trillian.mit.edu>
M: 6/8
L: 1/8
K: G
B |:\
"G"d2d Bcd | "C"e2g g3 | "G"d2d Bcd | "D7"c2A D3 |\
"G"d2d Bcd | "Am"e2a c'2e | "D7"f2d- def | "G"g3 G2a ||
"G"b2b gab | a2f d2e/f/ | "Em"g2g efg | "Bm"f2d B2c/d/ |\
"Am"e2e "D7"FAe | "G"d2B b2g | "F#/D7"e2F "D7"dcA |1 "G"G3 g2d :|2 "G"G3 g3 |]
